X:1
T:500 Miles High
C:1972 - Chick Corea / Neville Potter
Z:Copyright © www.realbook.site
L:1/8
Q:1/4=100
M:4/4
I:linebreak $
K:Cmin
V:1 treble nm=" " snm=" "
V:1
 d2 |:"Em" =B8 | z2 =B,D (3=A2 ^F2 D2 |"Gm69" =E8 | z2 dc (3=A2 F2 D2 |$"Bbmaj7" G8- | G4- G3 F | %7
"Bm7b5" F2 =EG- G4- |"E7#9" G4- (3G2 F2 =E2 ||$"Am7" d8- | d4- d3 c |"F#mb5" c2 =Bd- d4- | %12
 d4- (3d2 c2 =B2 |$"Fm7" _B2 Ac- c4 | z2 z G deAd |"Cm7" c8- | c4 z4 |"B7#9" z8 | z8 |] %19

